src/components/assets/work-conditions/1.svg

<svg width="111" height="123" viewBox="0 0 111 123" fill="none" xmlns="http://www.w3.org/2000/svg">
<path opacity="0.7" d="M95.5947 28.395L89.8584 32.2573L80.2982 30.3261L74.562 28.395L66.9137 30.3261L61.1775 28.395L65.0015 20.6703H72.6497L80.1451 16.8853C85.9255 19.7723 91.1549 23.6693 95.5947 28.395Z" fill="#414141"/>
<path opacity="0.7" d="M51.6174 20.6703L49.7054 26.4639L43.9692 28.395L38.2329 38.0508L28.6727 43.8444L15.2884 45.7755V51.5691L19.1125 55.4314V63.1561L13.3767 59.2936L7.64043 55.4314L4.31348 45.3315C10.04 31.5485 20.9866 20.6528 34.715 15.0698L40.1452 18.7391L51.6174 20.6703Z" fill="#414141"/>
<path opacity="0.7" d="M55.4417 74.7429L53.5297 84.3987L45.8814 92.1234V97.917L38.2332 103.71V113.366L32.4972 111.435L28.6729 101.779V82.4676L19.1127 80.5365L15.2887 72.8117V67.0181L19.1127 63.1559L24.8489 57.3623L28.6729 65.087H42.0572L47.7934 74.7429H55.4417Z" fill="#414141"/>
<path opacity="0.7" d="M103.816 39.6535C114.254 58.4612 113.065 81.6526 100.757 99.2685L95.5946 94.0544V86.3297L91.7706 78.605L87.9466 70.8803V63.1555L82.2104 59.2933L74.5621 61.2244L61.1779 55.4308L59.2659 41.9127L65.0021 36.1191H76.4743L80.2984 41.9127L91.7706 43.8439L103.243 39.9816L103.816 39.6535Z" fill="#414141"/>
<path opacity="0.7" d="M66.9139 30.326L74.5621 28.3949L80.2984 30.326L89.8586 32.2571L95.5948 28.3949C98.7975 31.7802 101.56 35.5633 103.817 39.6535L103.243 39.9818L91.7708 43.8441L80.2986 41.913L76.4746 36.1194H65.0023L59.2661 41.913L61.1781 55.4311L74.5623 61.2247L82.2106 59.2935L87.9468 63.1558V70.8805L91.7708 78.6052L95.5948 86.3299V94.0546L100.757 99.2688C83.0997 124.54 48.501 130.567 23.4818 112.733C2.23319 97.5846 -5.73819 69.5575 4.31348 45.3312L7.64043 55.4311L13.3767 59.2933L19.1129 63.1556L15.2887 67.018V72.8116L19.1127 80.5363L28.6729 82.4675V101.779L32.4969 111.435L38.2332 113.366V103.71L45.8814 97.9167V92.1231L53.5296 84.3984L55.4416 74.7425H47.7934L42.0572 65.0867H28.6729L24.8489 57.362L19.1127 63.1556V55.4308L15.2887 51.5688V45.7752L28.6729 43.8441L38.2332 38.0505L43.9694 28.3947L49.7056 26.4635L51.6176 20.6699L40.1454 18.7388L34.7152 15.0695C49.4189 9.08865 65.9542 9.74906 80.1454 16.8849L72.6501 20.6699H65.0019L61.1779 28.3947L66.9139 30.326Z" fill="#2E2E2E"/>
<path fill-rule="evenodd" clip-rule="evenodd" d="M71.5 43C73.1569 43 74.5 41.6569 74.5 40C74.5 38.3431 73.1569 37 71.5 37C69.8431 37 68.5 38.3431 68.5 40C68.5 41.6569 69.8431 43 71.5 43Z" fill="#FF7671"/>
<g filter="url(#filter0_f)">
<path fill-rule="evenodd" clip-rule="evenodd" d="M71.5 43C73.1569 43 74.5 41.6569 74.5 40C74.5 38.3431 73.1569 37 71.5 37C69.8431 37 68.5 38.3431 68.5 40C68.5 41.6569 69.8431 43 71.5 43Z" fill="#FF7671"/>
</g>
<path opacity="0.173479" fill-rule="evenodd" clip-rule="evenodd" d="M71.5 52C78.1274 52 83.5 46.6274 83.5 40C83.5 33.3726 78.1274 28 71.5 28C64.8726 28 59.5 33.3726 59.5 40C59.5 46.6274 64.8726 52 71.5 52Z" fill="#FF7671"/>
<g opacity="0.173479" filter="url(#filter1_f)">
<path fill-rule="evenodd" clip-rule="evenodd" d="M71.5 52C78.1274 52 83.5 46.6274 83.5 40C83.5 33.3726 78.1274 28 71.5 28C64.8726 28 59.5 33.3726 59.5 40C59.5 46.6274 64.8726 52 71.5 52Z" fill="url(#paint0_linear)"/>
</g>
<path opacity="0.173479" fill-rule="evenodd" clip-rule="evenodd" d="M24.5 100C29.4706 100 33.5 95.9706 33.5 91C33.5 86.0294 29.4706 82 24.5 82C19.5294 82 15.5 86.0294 15.5 91C15.5 95.9706 19.5294 100 24.5 100Z" fill="#FF7671"/>
<path fill-rule="evenodd" clip-rule="evenodd" d="M24.5 94C26.1569 94 27.5 92.6569 27.5 91C27.5 89.3431 26.1569 88 24.5 88C22.8431 88 21.5 89.3431 21.5 91C21.5 92.6569 22.8431 94 24.5 94Z" fill="#FF7671"/>
<g filter="url(#filter2_f)">
<path fill-rule="evenodd" clip-rule="evenodd" d="M24.5 94C26.1569 94 27.5 92.6569 27.5 91C27.5 89.3431 26.1569 88 24.5 88C22.8431 88 21.5 89.3431 21.5 91C21.5 92.6569 22.8431 94 24.5 94Z" fill="#FF7671"/>
</g>
<path opacity="0.173479" fill-rule="evenodd" clip-rule="evenodd" d="M21.5 54C26.4706 54 30.5 49.9706 30.5 45C30.5 40.0294 26.4706 36 21.5 36C16.5294 36 12.5 40.0294 12.5 45C12.5 49.9706 16.5294 54 21.5 54Z" fill="#FF7671"/>
<path opacity="0.173479" fill-rule="evenodd" clip-rule="evenodd" d="M54.5 88C61.6797 88 67.5 82.1797 67.5 75C67.5 67.8203 61.6797 62 54.5 62C47.3203 62 41.5 67.8203 41.5 75C41.5 82.1797 47.3203 88 54.5 88Z" fill="#FF7671"/>
<path opacity="0.173479" fill-rule="evenodd" clip-rule="evenodd" d="M89.5 85C92.8137 85 95.5 82.3137 95.5 79C95.5 75.6863 92.8137 73 89.5 73C86.1863 73 83.5 75.6863 83.5 79C83.5 82.3137 86.1863 85 89.5 85Z" fill="#FF7671"/>
<path fill-rule="evenodd" clip-rule="evenodd" d="M54.5 78C56.1569 78 57.5 76.6569 57.5 75C57.5 73.3431 56.1569 72 54.5 72C52.8431 72 51.5 73.3431 51.5 75C51.5 76.6569 52.8431 78 54.5 78Z" fill="#FF7671"/>
<path fill-rule="evenodd" clip-rule="evenodd" d="M20.5 48C22.1569 48 23.5 46.6569 23.5 45C23.5 43.3431 22.1569 42 20.5 42C18.8431 42 17.5 43.3431 17.5 45C17.5 46.6569 18.8431 48 20.5 48Z" fill="#FF7671"/>
<g filter="url(#filter3_f)">
<path fill-rule="evenodd" clip-rule="evenodd" d="M21.5 48C23.1569 48 24.5 46.6569 24.5 45C24.5 43.3431 23.1569 42 21.5 42C19.8431 42 18.5 43.3431 18.5 45C18.5 46.6569 19.8431 48 21.5 48Z" fill="#FF7671"/>
</g>
<g filter="url(#filter4_f)">
<path fill-rule="evenodd" clip-rule="evenodd" d="M54.5 78C56.1569 78 57.5 76.6569 57.5 75C57.5 73.3431 56.1569 72 54.5 72C52.8431 72 51.5 73.3431 51.5 75C51.5 76.6569 52.8431 78 54.5 78Z" fill="#FF7671"/>
</g>
<path fill-rule="evenodd" clip-rule="evenodd" d="M89.5 82C91.1569 82 92.5 80.6569 92.5 79C92.5 77.3431 91.1569 76 89.5 76C87.8431 76 86.5 77.3431 86.5 79C86.5 80.6569 87.8431 82 89.5 82Z" fill="#FF7671"/>
<g filter="url(#filter5_f)">
<path fill-rule="evenodd" clip-rule="evenodd" d="M89.5 82C91.1569 82 92.5 80.6569 92.5 79C92.5 77.3431 91.1569 76 89.5 76C87.8431 76 86.5 77.3431 86.5 79C86.5 80.6569 87.8431 82 89.5 82Z" fill="#FF7671"/>
</g>
<defs>
<filter id="filter0_f" x="63.0634" y="31.5634" width="16.8731" height="16.8731" filterUnits="userSpaceOnUse" color-interpolation-filters="sRGB">
<feFlood flood-opacity="0" result="BackgroundImageFix"/>
<feBlend mode="normal" in="SourceGraphic" in2="BackgroundImageFix" result="shape"/>
<feGaussianBlur stdDeviation="2.71828" result="effect1_foregroundBlur"/>
</filter>
<filter id="filter1_f" x="32.3172" y="0.817183" width="78.3656" height="78.3656" filterUnits="userSpaceOnUse" color-interpolation-filters="sRGB">
<feFlood flood-opacity="0" result="BackgroundImageFix"/>
<feBlend mode="normal" in="SourceGraphic" in2="BackgroundImageFix" result="shape"/>
<feGaussianBlur stdDeviation="13.5914" result="effect1_foregroundBlur"/>
</filter>
<filter id="filter2_f" x="16.0634" y="82.5634" width="16.8731" height="16.8731" filterUnits="userSpaceOnUse" color-interpolation-filters="sRGB">
<feFlood flood-opacity="0" result="BackgroundImageFix"/>
<feBlend mode="normal" in="SourceGraphic" in2="BackgroundImageFix" result="shape"/>
<feGaussianBlur stdDeviation="2.71828" result="effect1_foregroundBlur"/>
</filter>
<filter id="filter3_f" x="13.0634" y="36.5634" width="16.8731" height="16.8731" filterUnits="userSpaceOnUse" color-interpolation-filters="sRGB">
<feFlood flood-opacity="0" result="BackgroundImageFix"/>
<feBlend mode="normal" in="SourceGraphic" in2="BackgroundImageFix" result="shape"/>
<feGaussianBlur stdDeviation="2.71828" result="effect1_foregroundBlur"/>
</filter>
<filter id="filter4_f" x="46.0634" y="66.5634" width="16.8731" height="16.8731" filterUnits="userSpaceOnUse" color-interpolation-filters="sRGB">
<feFlood flood-opacity="0" result="BackgroundImageFix"/>
<feBlend mode="normal" in="SourceGraphic" in2="BackgroundImageFix" result="shape"/>
<feGaussianBlur stdDeviation="2.71828" result="effect1_foregroundBlur"/>
</filter>
<filter id="filter5_f" x="81.0634" y="70.5634" width="16.8731" height="16.8731" filterUnits="userSpaceOnUse" color-interpolation-filters="sRGB">
<feFlood flood-opacity="0" result="BackgroundImageFix"/>
<feBlend mode="normal" in="SourceGraphic" in2="BackgroundImageFix" result="shape"/>
<feGaussianBlur stdDeviation="2.71828" result="effect1_foregroundBlur"/>
</filter>
<linearGradient id="paint0_linear" x1="77.5" y1="16.4293" x2="54.3587" y2="28.4293" gradientUnits="userSpaceOnUse">
<stop stop-color="#FF7C56"/>
<stop offset="1" stop-color="#FF5D5D"/>
</linearGradient>
</defs>
</svg>

<svg width="111" height="123" fill="none" xmlns="http://www.w3.org/2000/svg"><path opacity=".7" d="M95.595 28.395l-5.737 3.862-9.56-1.93-5.736-1.932-7.648 1.931-5.736-1.931L65 20.67h7.649l7.495-3.785a54.8 54.8 0 0 1 15.45 11.51zM51.617 20.67l-1.912 5.794-5.736 1.931-5.736 9.656-9.56 5.793-13.385 1.931v5.794l3.825 3.862v7.725l-5.736-3.862L7.64 55.43l-3.327-10.1C10.04 31.548 20.987 20.653 34.715 15.07l5.43 3.67 11.472 1.93z" fill="#414141"/><path opacity=".7" d="M55.442 74.743l-1.912 9.656-7.649 7.724v5.794l-7.648 5.793v9.656l-5.736-1.931-3.824-9.656V82.468l-9.56-1.931-3.824-7.725v-5.794l3.824-3.862 5.736-5.794 3.824 7.725h13.384l5.736 9.656h7.649zM103.816 39.654c10.438 18.807 9.249 41.999-3.059 59.614l-5.162-5.214V86.33l-3.824-7.725-3.824-7.725v-7.724l-5.737-3.863-7.648 1.931-13.384-5.793-1.912-13.518 5.736-5.794h11.472l3.824 5.794 11.473 1.93 11.472-3.861.573-.328z" fill="#414141"/><path opacity=".7" d="M66.914 30.326l7.648-1.931 5.736 1.931 9.56 1.931 5.737-3.862a55.15 55.15 0 0 1 8.222 11.259l-.574.328-11.472 3.862-11.472-1.931-3.824-5.794H65.002l-5.736 5.794 1.912 13.518 13.384 5.794 7.649-1.931 5.736 3.862v7.724l3.824 7.725 3.824 7.725v7.725l5.162 5.214C83.1 124.54 48.501 130.567 23.482 112.733 2.233 97.585-5.738 69.558 4.313 45.331l3.327 10.1 5.737 3.862 5.736 3.863-3.824 3.862v5.794l3.824 7.724 9.56 1.931v19.312l3.824 9.656 5.736 1.931v-9.656l7.648-5.793v-5.794l7.649-7.725 1.912-9.655h-7.649l-5.736-9.656H28.673l-3.824-7.725-5.736 5.794V55.43l-3.824-3.862v-5.794l13.384-1.93 9.56-5.794 5.736-9.656 5.737-1.931 1.912-5.794-11.473-1.931-5.43-3.67a54.955 54.955 0 0 1 45.43 1.816L72.65 20.67h-7.648l-3.824 7.725 5.736 1.931z" fill="#2E2E2E"/><path fill-rule="evenodd" clip-rule="evenodd" d="M71.5 43a3 3 0 1 0 0-6 3 3 0 0 0 0 6z" fill="#FF7671"/><g filter="url(#filter0_f)"><path fill-rule="evenodd" clip-rule="evenodd" d="M71.5 43a3 3 0 1 0 0-6 3 3 0 0 0 0 6z" fill="#FF7671"/></g><path opacity=".173" fill-rule="evenodd" clip-rule="evenodd" d="M71.5 52c6.627 0 12-5.373 12-12s-5.373-12-12-12-12 5.373-12 12 5.373 12 12 12z" fill="#FF7671"/><g opacity=".173" filter="url(#filter1_f)"><path fill-rule="evenodd" clip-rule="evenodd" d="M71.5 52c6.627 0 12-5.373 12-12s-5.373-12-12-12-12 5.373-12 12 5.373 12 12 12z" fill="url(#paint0_linear)"/></g><path opacity=".173" fill-rule="evenodd" clip-rule="evenodd" d="M24.5 100a9 9 0 1 0 0-18 9 9 0 0 0 0 18z" fill="#FF7671"/><path fill-rule="evenodd" clip-rule="evenodd" d="M24.5 94a3 3 0 1 0 0-6 3 3 0 0 0 0 6z" fill="#FF7671"/><g filter="url(#filter2_f)"><path fill-rule="evenodd" clip-rule="evenodd" d="M24.5 94a3 3 0 1 0 0-6 3 3 0 0 0 0 6z" fill="#FF7671"/></g><path opacity=".173" fill-rule="evenodd" clip-rule="evenodd" d="M21.5 54a9 9 0 1 0 0-18 9 9 0 0 0 0 18zM54.5 88c7.18 0 13-5.82 13-13s-5.82-13-13-13-13 5.82-13 13 5.82 13 13 13zM89.5 85a6 6 0 1 0 0-12 6 6 0 0 0 0 12z" fill="#FF7671"/><path fill-rule="evenodd" clip-rule="evenodd" d="M54.5 78a3 3 0 1 0 0-6 3 3 0 0 0 0 6zM20.5 48a3 3 0 1 0 0-6 3 3 0 0 0 0 6z" fill="#FF7671"/><g filter="url(#filter3_f)"><path fill-rule="evenodd" clip-rule="evenodd" d="M21.5 48a3 3 0 1 0 0-6 3 3 0 0 0 0 6z" fill="#FF7671"/></g><g filter="url(#filter4_f)"><path fill-rule="evenodd" clip-rule="evenodd" d="M54.5 78a3 3 0 1 0 0-6 3 3 0 0 0 0 6z" fill="#FF7671"/></g><path fill-rule="evenodd" clip-rule="evenodd" d="M89.5 82a3 3 0 1 0 0-6 3 3 0 0 0 0 6z" fill="#FF7671"/><g filter="url(#filter5_f)"><path fill-rule="evenodd" clip-rule="evenodd" d="M89.5 82a3 3 0 1 0 0-6 3 3 0 0 0 0 6z" fill="#FF7671"/></g><defs><filter id="filter0_f" x="63.063" y="31.563" width="16.873" height="16.873" filterUnits="userSpaceOnUse" color-interpolation-filters="sRGB"><feFlood flood-opacity="0" result="BackgroundImageFix"/><feBlend in="SourceGraphic" in2="BackgroundImageFix" result="shape"/><feGaussianBlur stdDeviation="2.718" result="effect1_foregroundBlur"/></filter><filter id="filter1_f" x="32.317" y=".817" width="78.366" height="78.366" filterUnits="userSpaceOnUse" color-interpolation-filters="sRGB"><feFlood flood-opacity="0" result="BackgroundImageFix"/><feBlend in="SourceGraphic" in2="BackgroundImageFix" result="shape"/><feGaussianBlur stdDeviation="13.591" result="effect1_foregroundBlur"/></filter><filter id="filter2_f" x="16.063" y="82.563" width="16.873" height="16.873" filterUnits="userSpaceOnUse" color-interpolation-filters="sRGB"><feFlood flood-opacity="0" result="BackgroundImageFix"/><feBlend in="SourceGraphic" in2="BackgroundImageFix" result="shape"/><feGaussianBlur stdDeviation="2.718" result="effect1_foregroundBlur"/></filter><filter id="filter3_f" x="13.063" y="36.563" width="16.873" height="16.873" filterUnits="userSpaceOnUse" color-interpolation-filters="sRGB"><feFlood flood-opacity="0" result="BackgroundImageFix"/><feBlend in="SourceGraphic" in2="BackgroundImageFix" result="shape"/><feGaussianBlur stdDeviation="2.718" result="effect1_foregroundBlur"/></filter><filter id="filter4_f" x="46.063" y="66.563" width="16.873" height="16.873" filterUnits="userSpaceOnUse" color-interpolation-filters="sRGB"><feFlood flood-opacity="0" result="BackgroundImageFix"/><feBlend in="SourceGraphic" in2="BackgroundImageFix" result="shape"/><feGaussianBlur stdDeviation="2.718" result="effect1_foregroundBlur"/></filter><filter id="filter5_f" x="81.063" y="70.563" width="16.873" height="16.873" filterUnits="userSpaceOnUse" color-interpolation-filters="sRGB"><feFlood flood-opacity="0" result="BackgroundImageFix"/><feBlend in="SourceGraphic" in2="BackgroundImageFix" result="shape"/><feGaussianBlur stdDeviation="2.718" result="effect1_foregroundBlur"/></filter><linearGradient id="paint0_linear" x1="77.5" y1="16.429" x2="54.359" y2="28.429" gradientUnits="userSpaceOnUse"><stop stop-color="#FF7C56"/><stop offset="1" stop-color="#FF5D5D"/></linearGradient></defs></svg>
